src/apps/scalable/maya.svg

<?xml version="1.0" encoding="UTF-8" standalone="no"?>
<svg
   width="128"
   height="128"
   viewBox="0 0 33.866666 33.866668"
   version="1.1"
   id="svg2117"
   inkscape:version="1.1.2 (0a00cf5339, 2022-02-04)"
   sodipodi:docname="maya.svg"
   xmlns:inkscape="http://www.inkscape.org/namespaces/inkscape"
   xmlns:sodipodi="http://sodipodi.sourceforge.net/DTD/sodipodi-0.dtd"
   xmlns:xlink="http://www.w3.org/1999/xlink"
   xmlns="http://www.w3.org/2000/svg"
   xmlns:svg="http://www.w3.org/2000/svg"
   xmlns:rdf="http://www.w3.org/1999/02/22-rdf-syntax-ns#"
   xmlns:cc="http://creativecommons.org/ns#"
   xmlns:dc="http://purl.org/dc/elements/1.1/">
  <defs
     id="defs2111">
    <linearGradient
       inkscape:collect="always"
       xlink:href="#linearGradient1630"
       id="linearGradient912"
       gradientUnits="userSpaceOnUse"
       gradientTransform="matrix(0.97573207,0,0,0.97573207,-111.88908,-37.234129)"
       x1="132.21078"
       y1="42.151531"
       x2="132.21078"
       y2="70.679932" />
    <linearGradient
       id="linearGradient1630"
       inkscape:collect="always">
      <stop
         id="stop1626"
         offset="0"
         style="stop-color:#f8fcfc;stop-opacity:1;" />
      <stop
         id="stop1628"
         offset="1"
         style="stop-color:#e3e5e8;stop-opacity:1" />
    </linearGradient>
    <linearGradient
       id="linearGradient895">
      <stop
         id="stop3335"
         offset="0" />
      <stop
         id="stop3337"
         offset="1"
         stop-opacity="0" />
    </linearGradient>
  </defs>
  <sodipodi:namedview
     id="base"
     pagecolor="#ffffff"
     bordercolor="#666666"
     borderopacity="1.0"
     inkscape:pageopacity="0.0"
     inkscape:pageshadow="2"
     inkscape:zoom="3.959798"
     inkscape:cx="-6.4397224"
     inkscape:cy="72.099637"
     inkscape:document-units="mm"
     inkscape:current-layer="layer1"
     inkscape:document-rotation="0"
     showgrid="false"
     units="px"
     inkscape:window-width="1920"
     inkscape:window-height="1030"
     inkscape:window-x="0"
     inkscape:window-y="24"
     inkscape:window-maximized="1"
     showguides="true"
     inkscape:guide-bbox="true"
     inkscape:pagecheckerboard="0" />
  <metadata
     id="metadata2114">
    <rdf:RDF>
      <cc:Work
         rdf:about="">
        <dc:format>image/svg+xml</dc:format>
        <dc:type
           rdf:resource="http://purl.org/dc/dcmitype/StillImage" />
      </cc:Work>
    </rdf:RDF>
  </metadata>
  <g
     inkscape:label="Capa 1"
     inkscape:groupmode="layer"
     id="layer1">
    <g
       style="opacity:0.139618"
       transform="matrix(0.97573206,0,0,0.97573206,-65.829986,-36.914633)"
       id="g1702">
      <rect
         ry="6.6098609"
         rx="6.6098609"
         y="40.709618"
         x="69.839508"
         height="29.810888"
         width="29.810888"
         id="rect1634"
         style="fill:none;fill-opacity:1;stroke:#000000;stroke-width:0.1;stroke-linecap:round;stroke-linejoin:round;stroke-miterlimit:4;stroke-dasharray:none;stroke-opacity:0.02" />
      <rect
         style="fill:none;fill-opacity:1;stroke:#000000;stroke-width:0.2;stroke-linecap:round;stroke-linejoin:round;stroke-miterlimit:4;stroke-dasharray:none;stroke-opacity:0.02"
         id="rect1638"
         width="29.810888"
         height="29.810888"
         x="69.839508"
         y="40.709618"
         rx="6.6098609"
         ry="6.6098609" />
      <rect
         ry="6.6098609"
         rx="6.6098609"
         y="40.709618"
         x="69.839508"
         height="29.810888"
         width="29.810888"
         id="rect1640"
         style="fill:none;fill-opacity:1;stroke:#000000;stroke-width:0.3;stroke-linecap:round;stroke-linejoin:round;stroke-miterlimit:4;stroke-dasharray:none;stroke-opacity:0.02" />
      <rect
         style="fill:none;fill-opacity:1;stroke:#000000;stroke-width:0.4;stroke-linecap:round;stroke-linejoin:round;stroke-miterlimit:4;stroke-dasharray:none;stroke-opacity:0.02"
         id="rect1642"
         width="29.810888"
         height="29.810888"
         x="69.839508"
         y="40.709618"
         rx="6.6098609"
         ry="6.6098609" />
      <rect
         ry="6.6098609"
         rx="6.6098609"
         y="40.709618"
         x="69.839508"
         height="29.810888"
         width="29.810888"
         id="rect1644"
         style="fill:none;fill-opacity:1;stroke:#000000;stroke-width:0.5;stroke-linecap:round;stroke-linejoin:round;stroke-miterlimit:4;stroke-dasharray:none;stroke-opacity:0.02" />
      <rect
         style="fill:none;fill-opacity:1;stroke:#000000;stroke-width:0.6;stroke-linecap:round;stroke-linejoin:round;stroke-miterlimit:4;stroke-dasharray:none;stroke-opacity:0.02"
         id="rect1646"
         width="29.810888"
         height="29.810888"
         x="69.839508"
         y="40.709618"
         rx="6.6098609"
         ry="6.6098609" />
      <rect
         ry="6.6098609"
         rx="6.6098609"
         y="40.709618"
         x="69.839508"
         height="29.810888"
         width="29.810888"
         id="rect1648"
         style="fill:none;fill-opacity:1;stroke:#000000;stroke-width:0.7;stroke-linecap:round;stroke-linejoin:round;stroke-miterlimit:4;stroke-dasharray:none;stroke-opacity:0.02" />
      <rect
         style="fill:none;fill-opacity:1;stroke:#000000;stroke-width:0.8;stroke-linecap:round;stroke-linejoin:round;stroke-miterlimit:4;stroke-dasharray:none;stroke-opacity:0.02"
         id="rect1650"
         width="29.810888"
         height="29.810888"
         x="69.839508"
         y="40.709618"
         rx="6.6098609"
         ry="6.6098609" />
      <rect
         ry="6.6098609"
         rx="6.6098609"
         y="40.709618"
         x="69.839508"
         height="29.810888"
         width="29.810888"
         id="rect1652"
         style="fill:none;fill-opacity:1;stroke:#000000;stroke-width:1;stroke-linecap:round;stroke-linejoin:round;stroke-miterlimit:4;stroke-dasharray:none;stroke-opacity:0.02" />
      <rect
         style="fill:none;fill-opacity:1;stroke:#000000;stroke-width:1.2;stroke-linecap:round;stroke-linejoin:round;stroke-miterlimit:4;stroke-dasharray:none;stroke-opacity:0.02"
         id="rect1654"
         width="29.810888"
         height="29.810888"
         x="69.839508"
         y="40.709618"
         rx="6.6098609"
         ry="6.6098609" />
      <rect
         ry="6.6098609"
         rx="6.6098609"
         y="40.709618"
         x="69.839508"
         height="29.810888"
         width="29.810888"
         id="rect1656"
         style="fill:none;fill-opacity:1;stroke:#000000;stroke-width:1.4;stroke-linecap:round;stroke-linejoin:round;stroke-miterlimit:4;stroke-dasharray:none;stroke-opacity:0.02" />
      <rect
         style="fill:none;fill-opacity:1;stroke:#000000;stroke-width:1.6;stroke-linecap:round;stroke-linejoin:round;stroke-miterlimit:4;stroke-dasharray:none;stroke-opacity:0.02"
         id="rect1658"
         width="29.810888"
         height="29.810888"
         x="69.839508"
         y="40.709618"
         rx="6.6098609"
         ry="6.6098609" />
      <rect
         ry="6.6098609"
         rx="6.6098609"
         y="40.709618"
         x="69.839508"
         height="29.810888"
         width="29.810888"
         id="rect1660"
         style="fill:none;fill-opacity:1;stroke:#000000;stroke-width:1.8;stroke-linecap:round;stroke-linejoin:round;stroke-miterlimit:4;stroke-dasharray:none;stroke-opacity:0.02" />
      <rect
         style="fill:none;fill-opacity:1;stroke:#000000;stroke-width:2;stroke-linecap:round;stroke-linejoin:round;stroke-miterlimit:4;stroke-dasharray:none;stroke-opacity:0.02"
         id="rect1662"
         width="29.810888"
         height="29.810888"
         x="69.839508"
         y="40.709618"
         rx="6.6098609"
         ry="6.6098609" />
      <rect
         ry="6.6098609"
         rx="6.6098609"
         y="40.709618"
         x="69.839508"
         height="29.810888"
         width="29.810888"
         id="rect1664"
         style="fill:none;fill-opacity:1;stroke:#000000;stroke-width:2.2;stroke-linecap:round;stroke-linejoin:round;stroke-miterlimit:4;stroke-dasharray:none;stroke-opacity:0.02" />
      <rect
         style="fill:none;fill-opacity:1;stroke:#000000;stroke-width:2.6;stroke-linecap:round;stroke-linejoin:round;stroke-miterlimit:4;stroke-dasharray:none;stroke-opacity:0.02"
         id="rect1666"
         width="29.810888"
         height="29.810888"
         x="69.839508"
         y="40.709618"
         rx="6.6098609"
         ry="6.6098609" />
      <rect
         ry="6.6098609"
         rx="6.6098609"
         y="40.709618"
         x="69.839508"
         height="29.810888"
         width="29.810888"
         id="rect1668"
         style="fill:none;fill-opacity:1;stroke:#000000;stroke-width:3;stroke-linecap:round;stroke-linejoin:round;stroke-miterlimit:4;stroke-dasharray:none;stroke-opacity:0.02" />
      <rect
         style="fill:none;fill-opacity:1;stroke:#000000;stroke-width:3.4;stroke-linecap:round;stroke-linejoin:round;stroke-miterlimit:4;stroke-dasharray:none;stroke-opacity:0.02"
         id="rect1670"
         width="29.810888"
         height="29.810888"
         x="69.839508"
         y="40.709618"
         rx="6.6098609"
         ry="6.6098609" />
      <rect
         ry="6.6098609"
         rx="6.6098609"
         y="40.709618"
         x="69.839508"
         height="29.810888"
         width="29.810888"
         id="rect1672"
         style="fill:none;fill-opacity:1;stroke:#000000;stroke-width:3.8;stroke-linecap:round;stroke-linejoin:round;stroke-miterlimit:4;stroke-dasharray:none;stroke-opacity:0.02" />
      <rect
         style="fill:none;fill-opacity:1;stroke:#000000;stroke-width:4.2;stroke-linecap:round;stroke-linejoin:round;stroke-miterlimit:4;stroke-dasharray:none;stroke-opacity:0.02"
         id="rect1674"
         width="29.810888"
         height="29.810888"
         x="69.839508"
         y="40.709618"
         rx="6.6098609"
         ry="6.6098609" />
      <rect
         ry="6.6098609"
         rx="6.6098609"
         y="40.709618"
         x="69.839508"
         height="29.810888"
         width="29.810888"
         id="rect1676"
         style="fill:none;fill-opacity:1;stroke:#000000;stroke-width:4.6;stroke-linecap:round;stroke-linejoin:round;stroke-miterlimit:4;stroke-dasharray:none;stroke-opacity:0.02" />
      <rect
         style="fill:none;fill-opacity:1;stroke:#000000;stroke-width:5;stroke-linecap:round;stroke-linejoin:round;stroke-miterlimit:4;stroke-dasharray:none;stroke-opacity:0.02"
         id="rect1678"
         width="29.810888"
         height="29.810888"
         x="69.839508"
         y="40.709618"
         rx="6.6098609"
         ry="6.6098609" />
    </g>
    <rect
       style="fill:url(#linearGradient912);fill-opacity:1;stroke-width:2.68769;stroke-linecap:round;stroke-linejoin:round"
       id="rect910"
       width="29.08744"
       height="29.08744"
       x="2.2835085"
       y="2.4875498"
       rx="6.4494534"
       ry="6.4494534" />
    <g
       id="g1000"
       transform="translate(0.74709078,-0.09498961)">
      <path
         style="opacity:0.2;stroke-width:0.475696"
         d="M 25.594063,8.8015745 C 24.893753,15.181622 23.529353,20.959415 21.61849,26.401976 h 3.975265 z M 21.61849,26.401976 C 21.57246,20.892499 20.710373,17.777574 20.361403,16.48337 v 8.97053 z"
         id="path2" />
      <path
         style="opacity:0.2;stroke-width:0.475696"
         d="m 11.059389,16.634921 -4.493086,9.766913 c 1.570755,-0.05299 3.004588,0.265691 5.007365,-0.977949 z"
         id="path4" />
      <path
         style="fill:#197279;stroke-width:0.475696"
         d="M 20.198239,16.00757 25.594063,8.3258784 24.765032,21.049247 21.618676,25.899649 C 20.983509,20.463613 20.529302,17.304007 20.198239,16.00757 Z"
         id="path6" />
      <path
         style="fill:#197279;stroke-width:0.475696"
         d="m 11.059389,16.159223 -4.493086,9.766915 c 1.570755,-0.05298 3.004588,0.265691 5.007365,-0.977948 z"
         id="path8" />
      <path
         style="fill:#029a9b;stroke-width:0.475696"
         d="M 25.594063,8.3258784 C 24.893753,14.705926 23.529353,20.483717 21.61849,25.926278 h 3.975265 z M 21.61849,25.926278 c -0.04603,-5.509477 -0.908117,-8.6244 -1.257087,-9.918606 v 8.97053 z"
         id="path10" />
      <path
         style="opacity:0.2;fill:#ffffff;stroke-width:0.475696"
         d="M 25.594063,8.3258784 C 24.893753,14.705926 23.52933,20.484082 21.618467,25.926643 h 0.158881 c 1.825042,-5.30458 3.136608,-10.929035 3.81672,-17.1250685 z M 21.618467,25.926643 c -0.04603,-5.509477 -0.908094,-8.624806 -1.257064,-9.919012 v 0.475697 c 0.338148,1.254068 1.151649,4.237859 1.244056,9.433096 z"
         id="path12" />
      <path
         style="opacity:0.2;stroke-width:0.475696"
         d="m 6.566208,8.8741575 h 4.040418 l 0.910517,7.6137075 -4.950935,9.914253 z"
         id="path14" />
      <path
         style="fill:#029a9b;stroke-width:0.475696"
         d="m 6.566208,8.3984625 h 4.040418 l 0.910517,7.6137065 -4.950935,9.914251 z"
         id="path16" />
      <path
         style="opacity:0.2;stroke-width:0.475696"
         d="M 12.341459,8.3258784 6.566208,8.8740445 14.103951,22.596769 H 18.08512 L 25.594063,8.8015745 h -5.775251 l -3.695939,8.9211645 z"
         id="path18" />
      <path
         style="fill:#28c4c6;stroke-width:0.475696"
         d="M 25.594063,8.3258784 H 19.819109 L 14.103838,22.121072 h 3.981572 z"
         id="path20" />
      <path
         style="opacity:0.2;fill:#ffffff;stroke-width:0.475696"
         d="M 19.818812,8.3258784 14.103951,22.121072 h 0.196968 L 19.818812,8.8015745 h 5.516032 l 0.259219,-0.4756961 z"
         id="path22" />
      <path
         style="fill:#92dbdc;stroke-width:0.475696"
         d="M 6.566208,8.3984625 12.341006,7.8501821 18.08541,22.121072 h -3.981572 z"
         id="path24" />
      <path
         style="opacity:0.2;fill:#ffffff;stroke-width:0.475696"
         d="m 12.341459,7.8501821 -5.775251,0.5481654 0.248068,0.45247 5.527183,-0.5249391 5.552269,13.7951936 h 0.191392 z"
         id="path26" />
    </g>
  </g>
</svg>

<?xml version="1.0" encoding="UTF-8"?>
<svg id="svg2117" width="128" height="128" version="1.1" viewBox="0 0 33.867 33.867" xmlns="http://www.w3.org/2000/svg" xmlns:cc="http://creativecommons.org/ns#" xmlns:dc="http://purl.org/dc/elements/1.1/" xmlns:rdf="http://www.w3.org/1999/02/22-rdf-syntax-ns#" xmlns:xlink="http://www.w3.org/1999/xlink">
 <defs id="defs2111">
  <linearGradient id="linearGradient912" x1="132.21" x2="132.21" y1="42.152" y2="70.68" gradientTransform="matrix(.97573 0 0 .97573 -111.89 -37.234)" gradientUnits="userSpaceOnUse">
   <stop id="stop1626" stop-color="#f8fcfc" offset="0"/>
   <stop id="stop1628" stop-color="#e3e5e8" offset="1"/>
  </linearGradient>
 </defs>
 <metadata id="metadata2114">
  <rdf:RDF>
   <cc:Work rdf:about="">
    <dc:format>image/svg+xml</dc:format>
    <dc:type rdf:resource="http://purl.org/dc/dcmitype/StillImage"/>
   </cc:Work>
  </rdf:RDF>
 </metadata>
 <g id="layer1">
  <g id="g1702" transform="matrix(.97573 0 0 .97573 -65.83 -36.915)" fill="none" opacity=".13962" stroke="#000" stroke-linecap="round" stroke-linejoin="round" stroke-opacity=".02">
   <rect id="rect1634" x="69.84" y="40.71" width="29.811" height="29.811" rx="6.6099" ry="6.6099" stroke-width=".1"/>
   <rect id="rect1638" x="69.84" y="40.71" width="29.811" height="29.811" rx="6.6099" ry="6.6099" stroke-width=".2"/>
   <rect id="rect1640" x="69.84" y="40.71" width="29.811" height="29.811" rx="6.6099" ry="6.6099" stroke-width=".3"/>
   <rect id="rect1642" x="69.84" y="40.71" width="29.811" height="29.811" rx="6.6099" ry="6.6099" stroke-width=".4"/>
   <rect id="rect1644" x="69.84" y="40.71" width="29.811" height="29.811" rx="6.6099" ry="6.6099" stroke-width=".5"/>
   <rect id="rect1646" x="69.84" y="40.71" width="29.811" height="29.811" rx="6.6099" ry="6.6099" stroke-width=".6"/>
   <rect id="rect1648" x="69.84" y="40.71" width="29.811" height="29.811" rx="6.6099" ry="6.6099" stroke-width=".7"/>
   <rect id="rect1650" x="69.84" y="40.71" width="29.811" height="29.811" rx="6.6099" ry="6.6099" stroke-width=".8"/>
   <rect id="rect1652" x="69.84" y="40.71" width="29.811" height="29.811" rx="6.6099" ry="6.6099"/>
   <rect id="rect1654" x="69.84" y="40.71" width="29.811" height="29.811" rx="6.6099" ry="6.6099" stroke-width="1.2"/>
   <rect id="rect1656" x="69.84" y="40.71" width="29.811" height="29.811" rx="6.6099" ry="6.6099" stroke-width="1.4"/>
   <rect id="rect1658" x="69.84" y="40.71" width="29.811" height="29.811" rx="6.6099" ry="6.6099" stroke-width="1.6"/>
   <rect id="rect1660" x="69.84" y="40.71" width="29.811" height="29.811" rx="6.6099" ry="6.6099" stroke-width="1.8"/>
   <rect id="rect1662" x="69.84" y="40.71" width="29.811" height="29.811" rx="6.6099" ry="6.6099" stroke-width="2"/>
   <rect id="rect1664" x="69.84" y="40.71" width="29.811" height="29.811" rx="6.6099" ry="6.6099" stroke-width="2.2"/>
   <rect id="rect1666" x="69.84" y="40.71" width="29.811" height="29.811" rx="6.6099" ry="6.6099" stroke-width="2.6"/>
   <rect id="rect1668" x="69.84" y="40.71" width="29.811" height="29.811" rx="6.6099" ry="6.6099" stroke-width="3"/>
   <rect id="rect1670" x="69.84" y="40.71" width="29.811" height="29.811" rx="6.6099" ry="6.6099" stroke-width="3.4"/>
   <rect id="rect1672" x="69.84" y="40.71" width="29.811" height="29.811" rx="6.6099" ry="6.6099" stroke-width="3.8"/>
   <rect id="rect1674" x="69.84" y="40.71" width="29.811" height="29.811" rx="6.6099" ry="6.6099" stroke-width="4.2"/>
   <rect id="rect1676" x="69.84" y="40.71" width="29.811" height="29.811" rx="6.6099" ry="6.6099" stroke-width="4.6"/>
   <rect id="rect1678" x="69.84" y="40.71" width="29.811" height="29.811" rx="6.6099" ry="6.6099" stroke-width="5"/>
  </g>
  <rect id="rect910" x="2.2835" y="2.4875" width="29.087" height="29.087" rx="6.4495" ry="6.4495" fill="url(#linearGradient912)" stroke-linecap="round" stroke-linejoin="round" stroke-width="2.6877"/>
  <g id="g1000" transform="translate(.74709 -.09499)" stroke-width=".4757">
   <path id="path2" d="m25.594 8.8016c-0.70031 6.38-2.0647 12.158-3.9756 17.6h3.9753zm-3.9756 17.6c-0.04603-5.5095-0.90812-8.6244-1.2571-9.9186v8.9705z" opacity=".2"/>
   <path id="path4" d="m11.059 16.635-4.4931 9.7669c1.5708-0.05299 3.0046 0.26569 5.0074-0.97795z" opacity=".2"/>
   <path id="path6" d="m20.198 16.008 5.3958-7.6817-0.82903 12.723-3.1464 4.8504c-0.63517-5.436-1.0894-8.5956-1.4204-9.8921z" fill="#197279"/>
   <path id="path8" d="m11.059 16.159-4.4931 9.7669c1.5708-0.05298 3.0046 0.26569 5.0074-0.97795z" fill="#197279"/>
   <path id="path10" d="m25.594 8.3259c-0.70031 6.38-2.0647 12.158-3.9756 17.6h3.9753zm-3.9756 17.6c-0.04603-5.5095-0.90812-8.6244-1.2571-9.9186v8.9705z" fill="#029a9b"/>
   <path id="path12" d="m25.594 8.3259c-0.70031 6.38-2.0647 12.158-3.9756 17.601h0.15888c1.825-5.3046 3.1366-10.929 3.8167-17.125zm-3.9756 17.601c-0.04603-5.5095-0.90809-8.6248-1.2571-9.919v0.4757c0.33815 1.2541 1.1516 4.2379 1.2441 9.4331z" fill="#fff" opacity=".2"/>
   <path id="path14" d="m6.5662 8.8742h4.0404l0.91052 7.6137-4.9509 9.9143z" opacity=".2"/>
   <path id="path16" d="m6.5662 8.3985h4.0404l0.91052 7.6137-4.9509 9.9143z" fill="#029a9b"/>
   <path id="path18" d="m12.341 8.3259-5.7753 0.54817 7.5377 13.723h3.9812l7.5089-13.795h-5.7753l-3.6959 8.9212z" opacity=".2"/>
   <path id="path20" d="m25.594 8.3259h-5.775l-5.7153 13.795h3.9816z" fill="#28c4c6"/>
   <path id="path22" d="m19.819 8.3259-5.7149 13.795h0.19697l5.5179-13.319h5.516l0.25922-0.4757z" fill="#fff" opacity=".2"/>
   <path id="path24" d="m6.5662 8.3985 5.7748-0.54828 5.7444 14.271h-3.9816z" fill="#92dbdc"/>
   <path id="path26" d="m12.341 7.8502-5.7753 0.54817 0.24807 0.45247 5.5272-0.52494 5.5523 13.795h0.19139z" fill="#fff" opacity=".2"/>
  </g>
 </g>
</svg>
